build/img/portfolio/landscaping.svg

<?xml version="1.0" encoding="UTF-8" standalone="no"?>
<svg width="881px" height="574px" viewBox="0 0 881 574" version="1.1" xmlns="http://www.w3.org/2000/svg" xmlns:xlink="http://www.w3.org/1999/xlink" xmlns:sketch="http://www.bohemiancoding.com/sketch/ns">
    <!-- Generator: Sketch 3.2.2 (9983) - http://www.bohemiancoding.com/sketch -->
    <title>landscaping logo</title>
    <desc>Created with Sketch.</desc>
    <defs></defs>
    <g id="Page-1" stroke="none" stroke-width="1" fill="none" fill-rule="evenodd" sketch:type="MSPage">
        <g id="large" sketch:type="MSLayerGroup">
            <rect id="Rectangle-3" fill="#298100" sketch:type="MSShapeGroup" x="274" y="477" width="151" height="23"></rect>
            <path d="M177,465.756867 L170.188477,470.756943 L163.185547,458.772654 L155.510742,477.014798 L146.686523,470.756943 L140.107422,481.148211 L133.506836,460.493564 L126.775391,469.343959 L117.327148,458.772654 L110.19043,473.789023 L103.495117,451 L94.9951172,469.343959 L90.1630859,458.772654 L82.6289062,478.993969 L76.8730469,469.343959 L70.9326172,483.312386 L61.7275391,461.860607 L55.1533203,473.789023 L47.4140625,454.225775 L40.4277344,477.014798 L35,463.783215 L27.8017578,475.569532 L21.3730469,456.676769 L12.5039062,470.756943 L4.95507812,460.493564 L0,470.756943 L0,500 L177,500 L177,470.756943 L177,465.756867 Z" id="Rectangle-4" fill="#C3E6A0" sketch:type="MSShapeGroup"></path>
            <g id="tree" sketch:type="MSShapeGroup">
                <path d="M225,400 L0,400 L100,300 L25,300 L125,200 L75,200 L175,100 L125,100 L225,0" id="left" fill="#C3E69F"></path>
                <path d="M225,0 L425,400 L225,400" id="right" fill="#298100"></path>
                <rect id="trunk-left" fill="#DFBC8E" x="175" y="400" width="50" height="100"></rect>
                <rect id="trunk-right" fill="#744F1E" x="225" y="400" width="50" height="100"></rect>
            </g>
        </g>
        <g id="small" sketch:type="MSLayerGroup" transform="translate(456.000000, 0.000000)">
            <rect id="Rectangle-3" fill="#298100" sketch:type="MSShapeGroup" x="274" y="477" width="151" height="23"></rect>
            <path d="M177,473.067383 L163.319336,480.785156 L135.558594,466.588867 L99.9619141,477 L73.4179688,457.838867 L56.9072266,478.919434 L31.2978516,465.262695 L0,477 L0,500 L177,500 L177,477 L177,473.067383 Z" id="Rectangle-4" fill="#C3E69F" sketch:type="MSShapeGroup"></path>
            <g id="tree" sketch:type="MSShapeGroup">
                <path d="M225,400 L0,400 L100,300 L25,300 L125,200 L75,200 L175,100 L125,100 L225,0" id="left" fill="#C3E69F"></path>
                <path d="M225,0 L425,400 L225,400" id="right" fill="#298100"></path>
                <rect id="trunk-left" fill="#DFBC8E" x="175" y="400" width="50" height="100"></rect>
                <rect id="trunk-right" fill="#744F1E" x="225" y="400" width="50" height="100"></rect>
            </g>
        </g>
        <g id="small-2" sketch:type="MSLayerGroup" transform="translate(456.000000, 0.000000)">
            <rect id="Rectangle-3" fill="#298100" sketch:type="MSShapeGroup" x="57" y="99" width="31" height="5"></rect>
            <path d="M37,98.2507817 L34.1402002,99.8982698 L28.3371072,96.8678341 L20.8959933,99.0902647 L15.347259,95 L11.8958609,99.5 L6.54248874,96.5847405 L0,99.0902647 L0,104 L37,104 L37,99.0902647 L37,98.2507817 Z" id="Rectangle-4" fill="#C3E69F" sketch:type="MSShapeGroup"></path>
            <g id="tree" sketch:type="MSShapeGroup">
                <path d="M47,83 L0,83 L20.8888889,62.25 L5.22222222,62.25 L26.1111111,41.5 L15.6666667,41.5 L36.5555556,20.75 L26.1111111,20.75 L47,0" id="left" fill="#C3E69F"></path>
                <path d="M47,0 L88,83 L47,83" id="right" fill="#298100"></path>
                <rect id="trunk-left" fill="#DFBC8E" x="37" y="83" width="10" height="21"></rect>
                <rect id="trunk-right" fill="#744F1E" x="47" y="83" width="10" height="21"></rect>
            </g>
        </g>
        <text id="greener-grass" sketch:type="MSTextLayer" font-family="Verdana" font-size="48" font-weight="normal" sketch:alignment="middle" fill="#555555">
            <tspan x="33.015625" y="565">Your grass is greener on our side.</tspan>
        </text>
    </g>
</svg>

<svg width="881" height="574" xmlns="http://www.w3.org/2000/svg"><g fill="none" fill-rule="evenodd"><path fill="#298100" d="M274 477h151v23H274z"/><path d="M177 465.757l-6.812 5-7.002-11.984-7.675 18.242-8.824-6.258-6.58 10.391-6.6-20.654-6.732 8.85-9.448-10.571-7.137 15.016L103.495 451l-8.5 18.344-4.832-10.571-7.534 20.221-5.756-9.65-5.94 13.968-9.205-21.451-6.575 11.928-7.739-19.563-6.986 22.789L35 463.783l-7.198 11.787-6.429-18.893-8.87 14.08-7.548-10.263L0 470.757V500h177v-34.243z" fill="#C3E6A0"/><path d="M225 400H0l100-100H25l100-100H75l100-100h-50L225 0" fill="#C3E69F"/><path d="M225 0l200 400H225" fill="#298100"/><path fill="#DFBC8E" d="M175 400h50v100h-50z"/><path fill="#744F1E" d="M225 400h50v100h-50z"/><path fill="#298100" d="M730 477h151v23H730z"/><path d="M633 473.067l-13.68 7.718-27.761-14.196L555.962 477l-26.544-19.161-16.51 21.08-25.61-13.656L456 477v23h177v-26.933zM681 400H456l100-100h-75l100-100h-50l100-100h-50L681 0" fill="#C3E69F"/><path d="M681 0l200 400H681" fill="#298100"/><path fill="#DFBC8E" d="M631 400h50v100h-50z"/><path fill="#744F1E" d="M681 400h50v100h-50z"/><path fill="#298100" d="M513 99h31v5h-31z"/><path d="M493 98.25l-2.86 1.648-5.803-3.03-7.441 2.222-5.549-4.09-3.451 4.5-5.354-2.915L456 99.09V104h37v-5.75zM503 83h-47l20.889-20.75h-15.667l20.89-20.75h-10.445l20.889-20.75H482.11L503 0" fill="#C3E69F"/><path d="M503 0l41 83h-41" fill="#298100"/><path fill="#DFBC8E" d="M493 83h10v21h-10z"/><path fill="#744F1E" d="M503 83h10v21h-10z"/><text font-family="Verdana" font-size="48" fill="#555"><tspan x="33.016" y="565">Your grass is greener on our side.</tspan></text></g></svg>
